X: 1
T:Mick Mulkerrin
R:hornpipe
O:20th Century Cape Breton
C:Jerry Holland
S:Tune ofthe Month August 99
A:<http://www.jerryholland.com>
N:Contacts ...
N:Bookings,Mechanicals etc.
N:..... Jerry Holland <jerry@cranfordpub.com>
N:Tune books, related recordings
N:..... Cranford Publications <http://www.cranfordpub.com>
B:Previously Unpublished.
H:Copyrights - Publisher:Fiddlesticks Music (SOCAN).
Z:This abc transcription is for personal use only
Z:provided this notice remains attached.
Z:Used by permission of the composer and publisher.
Z:Paul Stewart Cranford 
L:1/8
Q:333
M:C|
K:D
Ac|defd fgec|defd efdc|BddB Addf|edcB cAAc|!
defd fgec|defd efdA|Bdgf edcd|e2 d2 d2:|!
|:de|faaf gaba|abaf defd|gaba afde|f2 e2 e2 de|!
faaf gaba|abaf defd|gaba gecd|e2 d2 d2:|!
